public/cloud-icons/azure/management/azure-migrate.svg

<?xml version="1.0" encoding="UTF-8" standalone="no"?>
<!-- Generated by Microsoft Visio, SVG Export Azure Migrate.svg Page-1 -->

<svg
   xmlns:dc="http://purl.org/dc/elements/1.1/"
   xmlns:cc="http://creativecommons.org/ns#"
   xmlns:rdf="http://www.w3.org/1999/02/22-rdf-syntax-ns#"
   xmlns:svg="http://www.w3.org/2000/svg"
   xmlns="http://www.w3.org/2000/svg"
   xmlns:sodipodi="http://sodipodi.sourceforge.net/DTD/sodipodi-0.dtd"
   xmlns:inkscape="http://www.inkscape.org/namespaces/inkscape"
   width="0.78741264in"
   height="0.47249678in"
   viewBox="0 0 56.693599 34.019702"
   xml:space="preserve"
   class="st4"
   version="1.1"
   id="svg53"
   sodipodi:docname="Azure Migrate.svg"
   style="font-size:12px;overflow:visible;color-interpolation-filters:sRGB;fill:none;fill-rule:evenodd;stroke-linecap:square;stroke-miterlimit:3"
   inkscape:version="0.92.5 (2060ec1f9f, 2020-04-08)"><metadata
   id="metadata57"><rdf:RDF><cc:Work
       rdf:about=""><dc:format>image/svg+xml</dc:format><dc:type
         rdf:resource="http://purl.org/dc/dcmitype/StillImage" /></cc:Work></rdf:RDF></metadata><sodipodi:namedview
   pagecolor="#ffffff"
   bordercolor="#666666"
   borderopacity="1"
   objecttolerance="10"
   gridtolerance="10"
   guidetolerance="10"
   inkscape:pageopacity="0"
   inkscape:pageshadow="2"
   inkscape:window-width="640"
   inkscape:window-height="480"
   id="namedview55"
   showgrid="false"
   inkscape:zoom="1.757082"
   inkscape:cx="37.795275"
   inkscape:cy="21.8062"
   inkscape:window-x="0"
   inkscape:window-y="0"
   inkscape:window-maximized="0"
   inkscape:current-layer="svg53" />
	<style
   type="text/css"
   id="style2">
	<![CDATA[
		.st1 {fill:url(#grad0-5);stroke:none;stroke-linecap:butt;stroke-width:32.6976}
		.st2 {fill:url(#grad0-9);stroke:none;stroke-linecap:butt;stroke-width:32.6976}
		.st3 {fill:#ffffff;stroke:none;stroke-linecap:butt;stroke-width:32.6976}
		.st4 {fill:none;fill-rule:evenodd;font-size:12px;overflow:visible;stroke-linecap:square;stroke-miterlimit:3}
	]]>
	</style>

	<defs
   id="Patterns_And_Gradients">
		<linearGradient
   id="grad0-5"
   x1="0"
   y1="82.762197"
   x2="38.072427"
   y2="82.762197"
   gradientTransform="scale(1.1995558,0.83364193)"
   gradientUnits="userSpaceOnUse">
			<stop
   offset="0"
   stop-color="#0078d4"
   stop-opacity="1"
   id="stop4" />
			<stop
   offset="0.16"
   stop-color="#1380da"
   stop-opacity="1"
   id="stop6" />
			<stop
   offset="0.53"
   stop-color="#3c91e5"
   stop-opacity="1"
   id="stop8" />
			<stop
   offset="0.82"
   stop-color="#559cec"
   stop-opacity="1"
   id="stop10" />
			<stop
   offset="1"
   stop-color="#5ea0ef"
   stop-opacity="1"
   id="stop12" />
		</linearGradient>
		<linearGradient
   id="grad0-9"
   x1="0"
   y1="82.25614"
   x2="38.99149"
   y2="82.25614"
   gradientTransform="scale(1.203596,0.8308436)"
   gradientUnits="userSpaceOnUse">
			<stop
   offset="0"
   stop-color="#198ab3"
   stop-opacity="1"
   id="stop15" />
			<stop
   offset="0"
   stop-color="#198ab3"
   stop-opacity="1"
   id="stop17" />
			<stop
   offset="0.11"
   stop-color="#22a5cb"
   stop-opacity="1"
   id="stop19" />
			<stop
   offset="0.23"
   stop-color="#29bade"
   stop-opacity="1"
   id="stop21" />
			<stop
   offset="0.37"
   stop-color="#2ec9eb"
   stop-opacity="1"
   id="stop23" />
			<stop
   offset="0.53"
   stop-color="#31d1f3"
   stop-opacity="1"
   id="stop25" />
			<stop
   offset="0.78"
   stop-color="#32d4f5"
   stop-opacity="1"
   id="stop27" />
		</linearGradient>
	</defs>
	<g
   id="g51"
   transform="translate(-32.6976,-32.702417)">
		<title
   id="title31">Page-1</title>
		<g
   id="group13728-1"
   transform="translate(32.6976,-34.0157)">
			<title
   id="title33">Azure Migrate.13728</title>
			<g
   id="shape13729-2"
   transform="translate(11.0236,-2.27592)">
				<title
   id="title35">path30</title>
				<path
   d="M 45.67,90.71 A 10.2677,10.0263 -180 0 0 36.76,81.08 12.9449,12.6406 -180 0 0 23.43,69 13.2913,12.9789 -180 0 0 10.83,77.45 12.252,11.9639 -180 0 0 0,89.08 12.5984,12.3023 -180 0 0 12.85,100.73 H 35.46 A 10.3622,10.1186 -180 0 0 45.67,90.71 Z"
   class="st1"
   id="path37"
   inkscape:connector-curvature="0"
   style="fill:url(#grad0-5);stroke:none;stroke-width:32.69760132;stroke-linecap:butt" />
			</g>
			<g
   id="shape13730-6">
				<title
   id="title40">path32</title>
				<path
   d="M 46.93,90.55 A 10.5512,10.3031 -180 0 0 37.8,80.65 13.2598,12.9481 -180 0 0 24.09,68.35 13.6378,13.3172 -180 0 0 11.06,76.93 12.5984,12.3023 -180 0 0 0,88.74 12.7874,12.4868 -180 0 0 13.23,100.73 H 36.35 A 10.6457,10.3954 -180 0 0 46.93,90.55 Z"
   class="st2"
   id="path42"
   inkscape:connector-curvature="0"
   style="fill:url(#grad0-9);stroke:none;stroke-width:32.69760132;stroke-linecap:butt" />
			</g>
			<g
   id="shape13731-10"
   transform="translate(12.4191)">
				<title
   id="title45">path34</title>
				<path
   d="m 2.76,84.86 h 2.68 a 0.724409,0.70738 0 0 1 0.535432,0.215289 L 12.27,91.23 a 0.755906,0.738136 0 0 1 0,1.07645 L 3.71,100.52 a 0.755906,0.738136 0 0 1 -0.535432,0.21529 L 0.62,100.73 A 0.787402,0.768891 0 0 1 0.179056,99.43826 L 7.45,92.25 a 0.724409,0.70738 -180 0 0 0,-1.04569 L 2.23,86.13 A 0.755906,0.738136 0 0 1 2.765433,84.86902 Z M 13.57,74.5 h 2.74 a 0.787402,0.768891 0 0 1 0.535432,0.246045 L 21.66,79.51 a 0.755906,0.738136 0 0 1 0,1.04569 L 15.36,86.43 a 0.755906,0.738136 0 0 1 -0.535433,0.215289 L 12.53,86.65 A 0.787402,0.768891 0 0 1 11.96307,85.38902 L 16.78,80.65 a 0.787402,0.768891 -180 0 0 0,-1.04569 L 13.03,75.92 a 0.772296,0.754141 0 0 1 0.535432,-1.41476 z m 5.63,12.3 h 2.68 a 0.88189,0.861158 0 0 1 0.535433,0.215289 L 26.35,90.86 a 0.787402,0.768891 0 0 1 0,1.04569 L 20.65,97.54 a 0.724409,0.70738 0 0 1 -0.535433,0.215289 L 17.53,97.75 A 0.755906,0.738136 0 0 1 16.994567,96.48902 L 21.47,92.06 a 0.787402,0.768891 -180 0 0 0,-1.04569 L 18.67,88.22 a 0.755906,0.738136 0 0 1 0.409448,-1.26098 z"
   class="st3"
   id="path47"
   inkscape:connector-curvature="0"
   style="fill:#ffffff;stroke:none;stroke-width:32.69760132;stroke-linecap:butt" />
			</g>
		</g>
	</g>
</svg>

<svg xmlns="http://www.w3.org/2000/svg" xml:space="preserve" width="75.592" height="45.36" style="font-size:12px;overflow:visible;color-interpolation-filters:sRGB;fill-rule:evenodd;stroke-linecap:square;stroke-miterlimit:3" viewBox="0 0 56.694 34.02"><defs><linearGradient id="a" x1="0" x2="38.072" y1="82.762" y2="82.762" gradientTransform="scale(1.19956 .83364)" gradientUnits="userSpaceOnUse"><stop offset="0" stop-color="#0078d4"/><stop offset=".16" stop-color="#1380da"/><stop offset=".53" stop-color="#3c91e5"/><stop offset=".82" stop-color="#559cec"/><stop offset="1" stop-color="#5ea0ef"/></linearGradient><linearGradient id="b" x1="0" x2="38.991" y1="82.256" y2="82.256" gradientTransform="scale(1.2036 .83084)" gradientUnits="userSpaceOnUse"><stop offset="0" stop-color="#198ab3"/><stop offset="0" stop-color="#198ab3"/><stop offset=".11" stop-color="#22a5cb"/><stop offset=".23" stop-color="#29bade"/><stop offset=".37" stop-color="#2ec9eb"/><stop offset=".53" stop-color="#31d1f3"/><stop offset=".78" stop-color="#32d4f5"/></linearGradient></defs><g transform="translate(-32.698 -32.702)"><title>Page-1</title><g transform="translate(32.698 -34.016)"><title>Azure Migrate.13728</title><g transform="translate(11.024 -2.276)"><title>path30</title><path d="M45.67 90.71a10.268 10.026-180 0 0-8.91-9.63A12.945 12.64-180 0 0 23.43 69a13.291 12.979-180 0 0-12.6 8.45A12.252 11.964-180 0 0 0 89.08a12.598 12.302-180 0 0 12.85 11.65h22.61a10.362 10.119-180 0 0 10.21-10.02" style="fill:url(#a);stroke:none;stroke-width:32.69760132;stroke-linecap:butt"/></g><title>path32</title><path d="M46.93 90.55a10.551 10.303-180 0 0-9.13-9.9 13.26 12.948-180 0 0-13.71-12.3 13.638 13.317-180 0 0-13.03 8.58A12.598 12.302-180 0 0 0 88.74a12.787 12.487-180 0 0 13.23 11.99h23.12a10.646 10.395-180 0 0 10.58-10.18" style="fill:url(#b);stroke:none;stroke-width:32.69760132;stroke-linecap:butt"/><g transform="translate(12.42)"><title>path34</title><path d="M2.76 84.86h2.68a.724.707 0 0 1 .535.215l6.295 6.155a.756.738 0 0 1 0 1.076l-8.56 8.214a.756.738 0 0 1-.535.215L.62 100.73a.787.769 0 0 1-.44-1.292l7.27-7.188a.724.707-180 0 0 0-1.046L2.23 86.13a.756.738 0 0 1 .535-1.261ZM13.57 74.5h2.74a.787.769 0 0 1 .535.246l4.815 4.764a.756.738 0 0 1 0 1.046l-6.3 5.874a.756.738 0 0 1-.535.215l-2.295.005a.787.769 0 0 1-.567-1.261l4.817-4.739a.787.769-180 0 0 0-1.046l-3.75-3.684a.772.754 0 0 1 .535-1.415zm5.63 12.3h2.68a.882.861 0 0 1 .535.215l3.935 3.845a.787.769 0 0 1 0 1.046l-5.7 5.634a.724.707 0 0 1-.535.215l-2.585-.005a.756.738 0 0 1-.535-1.261l4.475-4.429a.787.769-180 0 0 0-1.046l-2.8-2.794a.756.738 0 0 1 .41-1.261z" style="fill:#fff;stroke:none;stroke-width:32.69760132;stroke-linecap:butt"/></g></g></g></svg>
